packages/icons/svg/Fill/code-download.svg

<svg width="24" height="24" viewBox="0 0 24 24" fill="none" xmlns="http://www.w3.org/2000/svg">
<g id="Icon/Fill/code-download">
<path id="Mask" fill-rule="evenodd" clip-rule="evenodd" d="M21.7792 11.373L16.9512 5.373C16.6032 4.943 15.9742 4.873 15.5452 5.221C15.1142 5.567 15.0472 6.196 15.3922 6.627L19.7082 11.989L15.2312 17.359C14.8782 17.784 14.9352 18.415 15.3592 18.769C15.5472 18.924 15.7732 19 15.9992 19C16.2862 19 16.5702 18.878 16.7682 18.641L21.7682 12.641C22.0732 12.274 22.0782 11.744 21.7792 11.373ZM4.29192 12.0107L8.76892 6.6407C9.12192 6.2157 9.06392 5.5847 8.64092 5.2317C8.21492 4.8787 7.58592 4.9357 7.23092 5.3597L2.23092 11.3597C1.92692 11.7257 1.92192 12.2557 2.22092 12.6267L7.04892 18.6267C7.24692 18.8717 7.53592 18.9997 7.82892 18.9997C8.04892 18.9997 8.27092 18.9277 8.45492 18.7797C8.88592 18.4327 8.95292 17.8037 8.60692 17.3727L4.29192 12.0107ZM14.3056 11.3842C14.7016 11.0002 15.3366 11.0132 15.7196 11.4092C16.1026 11.8062 16.0916 12.4392 15.6946 12.8232L12.6946 15.7202C12.5006 15.9062 12.2496 16.0002 11.9996 16.0002C11.7436 16.0002 11.4886 15.9022 11.2926 15.7072L8.29262 12.7072C7.90262 12.3162 7.90262 11.6832 8.29262 11.2932C8.68362 10.9022 9.31662 10.9022 9.70662 11.2932L10.9996 12.5852V8.0002C10.9996 7.4472 11.4476 7.0002 11.9996 7.0002C12.5526 7.0002 12.9996 7.4472 12.9996 8.0002V12.6442L14.3056 11.3842Z" fill="#000000"/>
</g>
</svg>

<svg fill="none" height="24" viewBox="0 0 24 24" width="24" xmlns="http://www.w3.org/2000/svg"><path clip-rule="evenodd" d="m21.7793 11.3729-4.828-5.99996c-.348-.43-.977-.5-1.406-.152-.431.346-.498.975-.153 1.406l4.316 5.36196-4.477 5.37c-.353.425-.296 1.056.128 1.41.188.155.414.231.64.231.287 0 .571-.122.769-.359l5-6c.305-.367.31-.897.011-1.268zm-17.48729.6377 4.477-5.36996c.353-.425.295-1.056-.128-1.409-.426-.353-1.055-.296-1.41.128l-5 5.99996c-.304.366-.309.896-.01 1.267l4.828 6c.198.245.487.373.78.373.22 0 .442-.072.626-.22.431-.347.498-.976.152-1.407zm10.01369-.6266c.396-.384 1.031-.371 1.414.025.383.397.372 1.03-.025 1.414l-3 2.897c-.194.186-.445.28-.695.28-.256 0-.511-.098-.707-.293l-2.99998-3c-.39-.391-.39-1.024 0-1.414.391-.391 1.024-.391 1.414 0l1.29298 1.292v-4.58496c0-.553.448-1 1-1 .553 0 1 .447 1 1v4.64396z" fill="#6b7280" fill-rule="evenodd"/></svg>
